lib/img/icons/ui/duplicate.svg

<?xml version="1.0" encoding="utf-8"?>
<!-- Generated by IcoMoon.io -->
<!DOCTYPE svg PUBLIC "-//W3C//DTD SVG 1.1//EN" "http://www.w3.org/Graphics/SVG/1.1/DTD/svg11.dtd">
<svg version="1.1" xmlns="http://www.w3.org/2000/svg" xmlns:xlink="http://www.w3.org/1999/xlink" width="32" height="32" viewBox="0 0 32 32">
<path fill="rgb(0, 0, 0)" d="M22.801 0h-12.801v6h-8v26h20v-6h8v-18.801l-7.199-7.199zM20 24v6h-16v-22h8v8h8v8zM20 14h-6v-6h0.621l5.379 5.381v0.619zM28 24h-6v-10.801l-7.199-7.199h-2.801v-4h8v8h8v14zM28 8h-6v-6h0.621l5.379 5.381v0.619zM6 26h12v2h-12v-2zM6 22h12v2h-12v-2zM6 18h12v2h-12v-2zM6 14h4v2h-4v-2z"></path>
</svg>

<svg xmlns="http://www.w3.org/2000/svg" width="32" height="32" viewBox="0 0 32 32" class="svg-icon">
    <path d="M22.801 0H10v6H2v26h20v-6h8V7.199L22.801 0zM20 24v6H4V8h8v8h8v8zm0-10h-6V8h.621L20 13.381V14zm8 10h-6V13.199L14.801 6H12V2h8v8h8v14zm0-16h-6V2h.621L28 7.381V8zM6 26h12v2H6v-2zm0-4h12v2H6v-2zm0-4h12v2H6v-2zm0-4h4v2H6v-2z"/>
</svg>
